Adwaita++/mimetypes/scalable/application-x-mono-develop.svg

<svg height="256" viewBox="0 0 67.73 67.73" width="256" xmlns="http://www.w3.org/2000/svg" xmlns:xlink="http://www.w3.org/1999/xlink">
  <filter id="filter16020-3" color-interpolation-filters="sRGB" height="1.021433" width="1.027265" x="-.013633" y="-.010717">
    <feGaussianBlur stdDeviation="2.0004419"/>
  </filter>
  <g enable-background="new" stroke-width=".25" transform="matrix(.13297834 0 0 .13297834 .605824 28.61487660106)">
    <path d="m111.82842-178.55025h200l120.17158 119.671571.005 296.240039c.00031 17.728-14.44878 32.08839-32.17678 32.08839h-288c-17.72799 0-31.999992-14.272-31.999992-32v-384c0-17.728 14.272002-32 31.999992-32z" filter="url(#filter16020-3)" opacity=".4"/>
    <path d="m111.82842-179.67158h200l120.17158 119.67158.005 296.24003c.00031 17.728-14.44878 32.08839-32.17678 32.08839h-288c-17.727992 0-31.999992-14.272-31.999992-32v-384c0-17.728 14.272-32 31.999992-32z" fill="#f6f5f4"/>
    <path d="m311.82842-175.69243v88.000007c0 17.728 14.44211 31.693795 32.17011 31.693795l88.00147-.022223v-3.979149z" opacity=".25"/>
    <path d="m311.82842-179.67158v88.000008c0 17.728 14.44211 31.693795 32.17011 31.693795l88.00147-.022223z" fill="#deddda"/>
    <g fill-rule="evenodd">
      <g fill="#739dce" transform="matrix(7.5200217 0 0 7.5200217 -385.13184391026 -1925.88060323495)">
        <path d="m95.36018 251.93121c1.32177 3.19978 3.07407 6.01941 3.11303 11.24497.0403 5.39877-4.5909 8.89407-8.251111 8.89427-4.431506.00076-8.330507-3.74167-8.53609-6.84109-.185529-2.79769.80989-6.86614 5.947959-6.83569 2.45332.0141 5.002532 2.14846 5.015962 5.32366.0147 3.42632-4.277842 3.76079-5.360267 2.88838-.420449-.33884-.407617-1.00924-.03563-.8883 2.311125.7526 3.738897-.73068 3.632867-2.20603-.14393-2.00198-1.331654-3.19286-3.460737-3.29414-3.071207-.1459-3.931009 2.84109-3.852497 4.05318.09543 1.47389 1.380508 4.50558 5.378062 5.05898 1.887532.26138 3.451872-.30402 4.594532-1.41187 1.14267-1.10807 1.78509-2.25374 1.87894-4.13277.0971-1.94398-.32735-3.08448-1.48997-5.63487-.41528-.91114-1.57529-2.74842-2.47358-4.58881z"/>
        <path d="m169.14844 92.398438-14.73438 6.160156c3.39528 6.956146 7.77997 13.899906 9.34961 17.343746 4.39437 9.63975 5.99787 13.95114 5.63086 21.29883-.35472 7.1022-2.7826 11.43291-7.10156 15.6211-4.31893 4.18735-10.23091 6.32387-17.36524 5.33593-12.26982-1.69857-17.77882-9.57542-19.60937-15.45898-1.77199.3352-3.70786.52038-5.84375.50781-.6559-.00377-1.31274-.05811-1.96875-.14062 1.08347 11.63341 15.66516 25.45401 32.22266 25.45117 13.83454-.00076 31.33982-13.21139 31.1875-33.61719-.14726-19.75112-6.77167-30.4077-11.76758-42.501952zm-27.23438 24.566402c.01259.13515.0321.27173.04102.40625.1379 2.07899.09509 4.34447-.19727 6.64063 6.41295 1.15635 10.00213 5.4485 10.48438 12.15625.40076 5.5764-4.99703 11.1825-13.73242 8.33789-1.40601-.45712-1.45442 2.0767.13476 3.35742 4.09126 3.29746 20.31533 2.03254 20.25977-10.91797-.04718-11.15327-8.37121-18.89729-16.99024-19.98047zm-7.8125.36524c-11.17113 2.11316-15.40652 10.59176-16.4375 18.68945.82131.14811 1.68212.25145 2.59571.29492 1.7047.08098 3.22455-.09775 4.58398-.46875.80727-4.2869 3.5839-9.98223 9.73242-11.66015.22941-1.21903.3002-2.32596.24414-3.19141-.06779-1.04705-.29507-2.30236-.71875-3.66406z" transform="matrix(.26457031 0 0 .26457031 50.608368 227.48553)"/>
      </g>
      <path d="m109.69141 91.511719c-13.834598.001587-31.337684 13.213301-31.185551 33.619141.147224 19.75067 6.769762 30.40842 11.765625 42.50195l14.734376-6.16015c-3.39539-6.95539-7.779948-13.90096-9.34961-17.34375-4.394378-9.63975-5.997718-13.95156-5.630859-21.29883.354741-7.10348 2.782661-11.43329 7.101562-15.6211 4.318987-4.18731 10.232837-6.32282 17.367187-5.33593 15.10953 2.09332 19.96547 13.5501 20.32617 19.12109.25321 3.90922-2.07885 12.69623-9.97656 14.85156 0 0-.11961.58081-.22461 1.2793s-.05531 1.98809.06836 2.94727c.12368.95917.63086 2.62695.63086 2.62695 14.33963-2.7126 17.26093-15.9177 16.63672-25.32813-.77707-11.71613-15.51388-25.861299-32.26367-25.859371zm4.56054 19.119141c-6.11859.17137-13.77439 3.54944-13.73633 12.45312.04719 11.15273 8.37189 18.89833 16.99024 19.98243 0 0-.08336-.48241-.08789-1.65821-.00454-1.17579.13164-3.86926.24609-5.38867-6.41318-1.1565-10.00213-5.44842-10.48437-12.15625-.40077-5.57685 4.99505-11.18205 13.73047-8.33789 1.40595.45753 1.45443-2.0767-.13477-3.35742-1.27852-1.03033-3.74226-1.615-6.52344-1.53711z" fill="#8c8c8c" fill-opacity=".980952" transform="matrix(1.98957447238 0 0 1.98957447238 -4.55581082865 -215.18451127904)"/>
    </g>
  </g>
</svg>

<?xml version="1.0" encoding="UTF-8" standalone="no"?>
<svg
   xmlns:dc="http://purl.org/dc/elements/1.1/"
   xmlns:cc="http://creativecommons.org/ns#"
   xmlns:rdf="http://www.w3.org/1999/02/22-rdf-syntax-ns#"
   xmlns:svg="http://www.w3.org/2000/svg"
   xmlns="http://www.w3.org/2000/svg"
   xmlns:sodipodi="http://sodipodi.sourceforge.net/DTD/sodipodi-0.dtd"
   xmlns:inkscape="http://www.inkscape.org/namespaces/inkscape"
   width="256"
   height="256"
   version="1.1"
   viewBox="0 0 67.73 67.73"
   id="svg37"
   sodipodi:docname="extension.svg"
   inkscape:version="0.92.3 (2405546, 2018-03-11)">
  <metadata
     id="metadata41">
    <rdf:RDF>
      <cc:Work
         rdf:about="">
        <dc:format>image/svg+xml</dc:format>
        <dc:type
           rdf:resource="http://purl.org/dc/dcmitype/StillImage" />
        <dc:title></dc:title>
      </cc:Work>
    </rdf:RDF>
  </metadata>
  <sodipodi:namedview
     pagecolor="#ffffff"
     bordercolor="#666666"
     borderopacity="1"
     objecttolerance="10"
     gridtolerance="10"
     guidetolerance="10"
     inkscape:pageopacity="0"
     inkscape:pageshadow="2"
     inkscape:window-width="1920"
     inkscape:window-height="1009"
     id="namedview39"
     showgrid="false"
     inkscape:zoom="3.2617188"
     inkscape:cx="128"
     inkscape:cy="128"
     inkscape:window-x="0"
     inkscape:window-y="34"
     inkscape:window-maximized="1"
     inkscape:current-layer="g17498-7" />
  <defs
     id="defs17">
    <linearGradient
       id="linearGradient4226"
       x1="529.655"
       x2="-35.31"
       y1="401.584"
       y2="119.093"
       gradientTransform="matrix(0 -.11988932 .11988589 0 .36278001 292.54831)"
       gradientUnits="userSpaceOnUse">
      <stop
         style="stop-color:#f2f2f2"
         offset="0"
         id="stop2" />
      <stop
         style="stop-color:#f9f9f9"
         offset="1"
         id="stop4" />
    </linearGradient>
    <linearGradient
       id="linearGradient4358"
       x1="88"
       x2="488"
       y1="88"
       y2="488"
       gradientUnits="userSpaceOnUse">
      <stop
         style="stop-color:#000000;stop-opacity:.58823532"
         offset="0"
         id="stop7" />
      <stop
         style="stop-color:#000000;stop-opacity:0"
         offset=".88"
         id="stop9" />
      <stop
         style="stop-color:#000000"
         offset="1"
         id="stop11" />
    </linearGradient>
    <filter
       id="filter4346"
       x="-.01"
       y="-.01"
       width="1.026"
       height="1.022"
       style="color-interpolation-filters:sRGB">
      <feGaussianBlur
         stdDeviation="2.12"
         id="feGaussianBlur14" />
    </filter>
    <filter
       inkscape:collect="always"
       style="color-interpolation-filters:sRGB"
       id="filter16020-3"
       x="-0.013632531"
       width="1.0272651"
       y="-0.010716653"
       height="1.0214334">
      <feGaussianBlur
         inkscape:collect="always"
         stdDeviation="2.0004419"
         id="feGaussianBlur16022-6" />
    </filter>
    <filter
       id="filter4346-3"
       x="-0.0099999998"
       y="-0.0099999998"
       width="1.026"
       height="1.022"
       style="color-interpolation-filters:sRGB">
      <feGaussianBlur
         stdDeviation="2.12"
         id="feGaussianBlur14-6" />
    </filter>
    <linearGradient
       id="linearGradient4226-5"
       x1="529.65503"
       x2="-35.310001"
       y1="401.58401"
       y2="119.093"
       gradientTransform="matrix(0,-0.11988932,-0.11988589,0,67.016455,292.5483)"
       gradientUnits="userSpaceOnUse">
      <stop
         style="stop-color:#76c22b"
         offset="0"
         id="stop2-6" />
      <stop
         style="stop-color:#a6d74f"
         offset="1"
         id="stop4-2" />
    </linearGradient>
  </defs>
  <g
     transform="matrix(0.13297834,0,0,0.13297834,0.60582436,28.614877)"
     style="display:inline;stroke-width:0.25;enable-background:new"
     id="g17498">
    <g
       transform="translate(0,-3.4178172e-6)"
       style="display:inline;stroke-width:0.25;enable-background:new"
       id="g17498-7">
      <path
         style="display:inline;opacity:0.4;fill:#000000;fill-opacity:1;stroke:none;stroke-width:0.5;stroke-linejoin:round;stroke-miterlimit:4;stroke-dasharray:none;stroke-opacity:1;filter:url(#filter16020-3);enable-background:new"
         clip-path="none"
         d="m 111.82842,-178.55025 h 200 L 432,-58.878679 432.005,237.36136 c 3.1e-4,17.728 -14.44878,32.08839 -32.17678,32.08839 h -288 c -17.72799,0 -31.999992,-14.272 -31.999992,-32 v -384 c 0,-17.728 14.272002,-32 31.999992,-32 z"
         id="path6869-5"
         inkscape:connector-curvature="0"
         sodipodi:nodetypes="sccssssss" />
      <path
         sodipodi:nodetypes="sccssssss"
         inkscape:connector-curvature="0"
         id="rect2069-3"
         d="m 111.82842,-179.67158 h 200 L 432,-60 l 0.005,296.24003 c 3.1e-4,17.728 -14.44878,32.08839 -32.17678,32.08839 h -288 c -17.727992,0 -31.999992,-14.272 -31.999992,-32 v -384 c 0,-17.728 14.272,-32 31.999992,-32 z"
         clip-path="none"
         style="display:inline;opacity:1;fill:#f6f5f4;fill-opacity:1;stroke:none;stroke-width:0.5;stroke-linejoin:round;stroke-miterlimit:4;stroke-dasharray:none;stroke-opacity:1;enable-background:new" />
      <path
         inkscape:connector-curvature="0"
         style="display:inline;opacity:0.25;vector-effect:none;fill:#000000;fill-opacity:1;stroke:none;stroke-width:0.5;stroke-linecap:butt;stroke-linejoin:round;stroke-miterlimit:4;stroke-dasharray:none;stroke-dashoffset:0;stroke-opacity:1;enable-background:new"
         d="m 311.82842,-175.69243 v 88.000007 c 0,17.728 14.44211,31.693795 32.17011,31.693795 L 432,-56.020851 V -60 Z"
         id="path836"
         sodipodi:nodetypes="cscccc" />
      <path
         sodipodi:nodetypes="csccc"
         id="rect26812-5"
         d="m 311.82842,-179.67158 v 88.000008 c 0,17.728 14.44211,31.693795 32.17011,31.693795 L 432,-60 Z"
         style="display:inline;opacity:1;vector-effect:none;fill:#deddda;fill-opacity:1;stroke:none;stroke-width:0.5;stroke-linecap:butt;stroke-linejoin:round;stroke-miterlimit:4;stroke-dasharray:none;stroke-dashoffset:0;stroke-opacity:1;enable-background:new"
         inkscape:connector-curvature="0" />
      <g
         transform="matrix(7.5200217,0,0,7.5200217,-389.9314,-1927.6428)"
         id="g37">
        <g
           id="g847"
           transform="translate(0.63823747,0.23433369)">
          <path
             inkscape:export-ydpi="16.219999"
             inkscape:export-filename="/home/lluis/MonoDevelopWork/mono-logo.png"
             d="m 95.36018,251.93121 c 1.32177,3.19978 3.07407,6.01941 3.11303,11.24497 0.0403,5.39877 -4.5909,8.89407 -8.251111,8.89427 -4.431506,7.6e-4 -8.330507,-3.74167 -8.53609,-6.84109 -0.185529,-2.79769 0.80989,-6.86614 5.947959,-6.83569 2.45332,0.0141 5.002532,2.14846 5.015962,5.32366 0.0147,3.42632 -4.277842,3.76079 -5.360267,2.88838 -0.420449,-0.33884 -0.407617,-1.00924 -0.03563,-0.8883 2.311125,0.7526 3.738897,-0.73068 3.632867,-2.20603 -0.14393,-2.00198 -1.331654,-3.19286 -3.460737,-3.29414 -3.071207,-0.1459 -3.931009,2.84109 -3.852497,4.05318 0.09543,1.47389 1.380508,4.50558 5.378062,5.05898 1.887532,0.26138 3.451872,-0.30402 4.594532,-1.41187 1.14267,-1.10807 1.78509,-2.25374 1.87894,-4.13277 0.0971,-1.94398 -0.32735,-3.08448 -1.48997,-5.63487 -0.41528,-0.91114 -1.57529,-2.74842 -2.47358,-4.58881 z"
             inkscape:export-xdpi="16.219999"
             sodipodi:nodetypes="cssscsssssssssscc"
             id="path3611"
             style="display:inline;fill:#739dce;fill-opacity:1;fill-rule:evenodd;stroke:none;stroke-width:0.22488478;stroke-linecap:butt;stroke-linejoin:miter;stroke-miterlimit:4;stroke-dasharray:none;stroke-opacity:1;enable-background:new"
             inkscape:connector-curvature="0" />
          <path
             style="display:inline;fill:#739dce;fill-opacity:1;fill-rule:evenodd;stroke:none;stroke-width:0.85000002;stroke-linecap:butt;stroke-linejoin:miter;stroke-miterlimit:4;stroke-dasharray:none;stroke-opacity:1;enable-background:new"
             d="M 169.14844 92.398438 L 154.41406 98.558594 C 157.80934 105.51474 162.19403 112.4585 163.76367 115.90234 C 168.15804 125.54209 169.76154 129.85348 169.39453 137.20117 C 169.03981 144.30337 166.61193 148.63408 162.29297 152.82227 C 157.97404 157.00962 152.06206 159.14614 144.92773 158.1582 C 132.65791 156.45963 127.14891 148.58278 125.31836 142.69922 C 123.54637 143.03442 121.6105 143.2196 119.47461 143.20703 C 118.81871 143.20326 118.16187 143.14892 117.50586 143.06641 C 118.58933 154.69982 133.17102 168.52042 149.72852 168.51758 C 163.56306 168.51682 181.06834 155.30619 180.91602 134.90039 C 180.76876 115.14927 174.14435 104.49269 169.14844 92.398438 z M 141.91406 116.96484 C 141.92665 117.09999 141.94616 117.23657 141.95508 117.37109 C 142.09298 119.45008 142.05017 121.71556 141.75781 124.01172 C 148.17076 125.16807 151.75994 129.46022 152.24219 136.16797 C 152.64295 141.74437 147.24516 147.35047 138.50977 144.50586 C 137.10376 144.04874 137.05535 146.58256 138.64453 147.86328 C 142.73579 151.16074 158.95986 149.89582 158.9043 136.94531 C 158.85712 125.79204 150.53309 118.04802 141.91406 116.96484 z M 134.10156 117.33008 C 122.93043 119.44324 118.69504 127.92184 117.66406 136.01953 C 118.48537 136.16764 119.34618 136.27098 120.25977 136.31445 C 121.96447 136.39543 123.48432 136.2167 124.84375 135.8457 C 125.65102 131.5588 128.42765 125.86347 134.57617 124.18555 C 134.80558 122.96652 134.87637 121.85959 134.82031 120.99414 C 134.75252 119.94709 134.52524 118.69178 134.10156 117.33008 z "
             transform="matrix(0.26457031,0,0,0.26457031,50.608368,227.48553)"
             id="path861" />
        </g>
        <path
           style="display:inline;fill:#8c8c8c;fill-opacity:0.98095238;fill-rule:evenodd;stroke:none;stroke-width:0.85000002;stroke-linecap:butt;stroke-linejoin:miter;stroke-miterlimit:4;stroke-dasharray:none;stroke-opacity:1;enable-background:new"
           d="M 109.69141 91.511719 C 95.856812 91.513306 78.353726 104.72502 78.505859 125.13086 C 78.653083 144.88153 85.275621 155.53928 90.271484 167.63281 L 105.00586 161.47266 C 101.61047 154.51727 97.225912 147.5717 95.65625 144.12891 C 91.261872 134.48916 89.658532 130.17735 90.025391 122.83008 C 90.380132 115.7266 92.808052 111.39679 97.126953 107.20898 C 101.44594 103.02167 107.35979 100.88616 114.49414 101.87305 C 129.60367 103.96637 134.45961 115.42315 134.82031 120.99414 C 135.07352 124.90336 132.74146 133.69037 124.84375 135.8457 C 124.84375 135.8457 124.72414 136.42651 124.61914 137.125 C 124.51414 137.82349 124.56383 139.11309 124.6875 140.07227 C 124.81118 141.03144 125.31836 142.69922 125.31836 142.69922 C 139.65799 139.98662 142.57929 126.78152 141.95508 117.37109 C 141.17801 105.65496 126.4412 91.509791 109.69141 91.511719 z M 114.25195 110.63086 C 108.13336 110.80223 100.47756 114.1803 100.51562 123.08398 C 100.56281 134.23671 108.88751 141.98231 117.50586 143.06641 C 117.50586 143.06641 117.4225 142.584 117.41797 141.4082 C 117.41343 140.23241 117.54961 137.53894 117.66406 136.01953 C 111.25088 134.86303 107.66193 130.57111 107.17969 123.86328 C 106.77892 118.28643 112.17474 112.68123 120.91016 115.52539 C 122.31611 115.98292 122.36459 113.44869 120.77539 112.16797 C 119.49687 111.13764 117.03313 110.55297 114.25195 110.63086 z "
           transform="matrix(0.26457031,0,0,0.26457031,51.246606,227.71986)"
           id="path3607" />
      </g>
    </g>
  </g>
</svg>
